X:1
T:O Little Town of Bethlehem
T:O Little Town of Bethlehem
T:Lewis Henry Redner
T:Phillips Brooks, 1867
T:Public Domain Courtesy of the Cyber Hymnal™
T:Public Domain Courtesy of the Cyber Hymnal™
C:Lewis Henry Redner
Z:Public Domain
Z:Courtesy of the Cyber Hymnal™
%%score ( 1 2 ) ( 3 4 )
L:1/8
Q:1/4=105
M:4/4
K:F
V:1 treble 
V:2 treble 
V:3 bass 
V:4 bass 
V:1
 [CA]2 | [CA]2 [CA]2 [=B,^G]2 [CA]2 | ([_Ec]2 [DB]2) [B,D]2 [DG]2 | [CF]2 (EF) [CG]2 C2 | %4
w: 1.~O|lit- tle town of|Bethle- * hem, how|still we * see thee|
w: 2.~For|Christ is born of|Ma- * ry, and|ga- thered * all a-|
w: 3.~How|si- lent- ly, how|silent- * ly, the|won- drous * Gift is|
w: 4.~Where|child- ren pure and|hap- * py pray|to the * bless- èd|
w: 5.~O|ho- ly Child of|Bethle- * hem, de-|scend to * us, we|
 [CA]6 [CA]2 | [CA]2 [FA]2 [^Fd]2 [Fc]2 | [Gc]2 [DB]2 [B,D]2 [DG]2 | [CF]2 (EF) [EA]3 [EG] | %8
w: lie! A-|bove thy deep and|dream- less sleep the|si- lent * stars go|
w: bove, While|mor- tals sleep, the|an- gels keep their|watch of * won- dering|
w: giv’n; So|God im- parts to|hu- man hearts the|bless- ings * of His|
w: Child, Where|mis- er- y cries|out to Thee, Son|of the * mo- ther|
w: pray; Cast|out our sin, and|en- ter in, be|born in * us to-|
 F6 [FA]2 | [FA]2 [FA]2 [EG]2 [DF]2 | [^CE]4 [CE]2 [CE]2 | D2 E2 F2 [DG]2 | [EA]6 [FA]2 | %13
w: by. Yet|in thy dark streets|shin- eth the|ev- er- last- ing|Light; The|
w: love. O|morn- ing stars to-|ge- ther, pro-|claim the ho- ly|birth, And|
w: heav’n. No|ear may hear His|com- ing, but|in this world of|sin, Where|
w: mild; Where|char- i- ty stands|watch- ing and|faith holds wide the|door, The|
w: day. We|hear the Christ- mas|an- gels the|great glad tid- ings|tell; O|
 [CA]2 [CA]2 [=B,^G]2 [CA]2 | [Dc]2 [DB]2 [B,D]2 d2 | [Fc]2 [=B,F]2 [CA]3 [_B,G] | [A,F]6 |] %17
w: hopes and fears of|all the years are|met in thee to-|night.|
w: prais- es sing to|God the King, and|peace to men on|earth!|
w: meek souls will re-|ceive Him still, the|dear Christ en- ters|in.|
w: dark night wakes, the|glor- y breaks, and|Christ- mas comes once|more.|
w: come to us, a-|bide with us, our|Lord Em- man- u-|el!|
V:2
 x2 | x8 | x8 | x2 C2 x C2 x | x8 | x8 | x8 | x2 C2 x4 | F6 x2 | x8 | x8 | D2 E2 F2 x2 | x8 | x8 | %14
 x6 (DE) | x8 | x6 |] %17
V:3
 F,2 | F,2 F,2 F,2 F,2 | [B,,^F,]2 [B,,G,]2 [B,,G,]2 [B,,B,]2 | [C,A,]2 (G,A,) [C,B,]2 [C,B,]2 | %4
 [F,A,]6 F,2 | F,2 [_E,A,]2 [D,A,]2 [D,D]2 | [G,D]2 [G,D]2 [G,,D]2 [B,,B,]2 | %7
 A,2 (^G,A,) [C,C]3 [C,B,] | [F,A,]6 [F,C]2 | [F,C]2 [F,A,]2 [G,B,]2 [^G,=B,]2 | %10
 [A,^C]4 [A,C]2 [A,,A,]2 | D,2 E,2 F,2 [B,D]2 | [A,^C]6 [F,=C]2 | [F,C]2 [F,A,]2 F,2 F,2 | %14
 [B,,^F,]2 [B,,G,]2 [B,,G,]2 [B,,B,]2 | [C,A,]2 (G,F,) [C,F,]3 [C,E,] | [F,,F,]6 |] %17
V:4
 F,2 | F,2 F,2 F,2 F,2 | x8 | x2 C,2 x4 | x6 F,2 | F,2 x6 | x8 | C,3 C, x4 | x8 | x8 | x8 | %11
 D,2 E,2 F,2 x2 | x8 | x8 | x8 | x2 D,2 x4 | x6 |] %17

